ps/network.svg

<svg version="1.1" xmlns="http://www.w3.org/2000/svg" viewBox="0 0 25 32" height="1em" width="1em">
  <path d="M20.456 18.098v-2.623h-7.343v-1.573h4.721v-10.489h-10.49v10.489h4.721v1.573h-7.343v2.623h-4.721v10.49h10.49v-10.49h-4.721v-1.574h13.637v1.574h-4.721v10.49h10.49v-10.49h-4.721zM8.392 4.462h8.392v8.391h-8.392v-8.391zM9.441 27.539h-8.392v-8.392h8.392l-0 8.392zM24.128 27.539h-8.392v-8.392h8.392v8.392z" fill="#000000"/>
</svg>

<svg xmlns="http://www.w3.org/2000/svg" viewBox="0 0 25 32" height="1em" width="1em">
  <path d="M20.456 18.098v-2.623h-7.343v-1.573h4.721V3.413H7.344v10.489h4.721v1.573H4.722v2.623H.001v10.49h10.49v-10.49H5.77v-1.574h13.637v1.574h-4.721v10.49h10.49v-10.49h-4.721zM8.392 4.462h8.392v8.391H8.392V4.462zm1.049 23.077H1.049v-8.392h8.392v8.392zm14.687 0h-8.392v-8.392h8.392v8.392z"/>
</svg>
